poi/svg/1119.svg

<?xml version="1.0" encoding="UTF-8" standalone="no"?>
<svg
   xmlns:dc="http://purl.org/dc/elements/1.1/"
   xmlns:cc="http://creativecommons.org/ns#"
   xmlns:rdf="http://www.w3.org/1999/02/22-rdf-syntax-ns#"
   xmlns:svg="http://www.w3.org/2000/svg"
   xmlns="http://www.w3.org/2000/svg"
   xmlns:sodipodi="http://sodipodi.sourceforge.net/DTD/sodipodi-0.dtd"
   xmlns:inkscape="http://www.inkscape.org/namespaces/inkscape"
   inkscape:version="1.0 (4035a4fb49, 2020-05-01)"
   sodipodi:docname="1119.svg"
   id="svg20"
   version="1.2"
   viewBox="0 0 42.519639 42.519639"
   height="14.999999mm"
   width="14.999999mm">
  <metadata
     id="metadata24">
    <rdf:RDF>
      <cc:Work
         rdf:about="">
        <dc:format>image/svg+xml</dc:format>
        <dc:type
           rdf:resource="http://purl.org/dc/dcmitype/StillImage" />
        <dc:title>Qt SVG Document</dc:title>
      </cc:Work>
    </rdf:RDF>
  </metadata>
  <sodipodi:namedview
     inkscape:current-layer="svg20"
     inkscape:window-maximized="1"
     inkscape:window-y="-9"
     inkscape:window-x="-9"
     inkscape:cy="28.346482"
     inkscape:cx="28.346482"
     inkscape:zoom="18.047943"
     fit-margin-bottom="0"
     fit-margin-right="0"
     fit-margin-left="0"
     fit-margin-top="0"
     showgrid="false"
     id="namedview22"
     inkscape:window-height="1013"
     inkscape:window-width="1920"
     inkscape:pageshadow="2"
     inkscape:pageopacity="0"
     guidetolerance="10"
     gridtolerance="10"
     objecttolerance="10"
     borderopacity="1"
     bordercolor="#666666"
     pagecolor="#ffffff" />
  <title
     id="title2">Qt SVG Document</title>
  <desc
     id="desc4">Generated with Qt</desc>
  <defs
     id="defs6" />
  <g
     transform="translate(5.25984,5.25984)"
     id="g18"
     stroke-linejoin="bevel"
     stroke-linecap="square"
     fill-rule="evenodd"
     stroke-width="1"
     stroke="#000000"
     fill="none">
    <g
       id="g10"
       font-style="normal"
       font-weight="400"
       font-size="7.8px"
       font-family="'MS Shell Dlg 2'"
       stroke="none"
       fill-opacity="1"
       fill="#3d97f1">
      <path
         id="path8"
         d="M 37.2598,16 C 37.2598,27.7415 27.7415,37.2598 16,37.2598 4.25851,37.2598 -5.25984,27.7415 -5.25984,16 -5.25984,4.25851 4.25851,-5.25984 16,-5.25984 27.7415,-5.25984 37.2598,4.25851 37.2598,16"
         fill-rule="evenodd"
         vector-effect="non-scaling-stroke" />
    </g>
    <g
       id="g14"
       font-style="normal"
       font-weight="400"
       font-size="7.8px"
       font-family="'MS Shell Dlg 2'"
       transform="translate(16,12.5984)"
       stroke="none"
       fill-opacity="0.94902"
       fill="#ffffff">
      <path
         id="path12"
         d="m 4.40039,9.31689 c 0,-0.20996 0.08399,-0.38492 0.25195,-0.5249 0.16797,-0.13997 0.35694,-0.20996 0.5669,-0.20996 h 1.6167 v 6.27787 h -1.6167 c -0.20996,0 -0.39893,-0.0805 -0.5669,-0.2415 C 4.48438,14.4574 4.40039,14.265 4.40039,14.041 V 9.31689 m 0,-15.62109 c 0,-0.22396 0.08399,-0.40242 0.25195,-0.5354 0.16797,-0.13297 0.35694,-0.19946 0.5669,-0.19946 h 1.6167 v 6.27783 h -1.6167 c -0.20996,0 -0.39893,-0.083985 -0.5669,-0.25195 C 4.48438,-1.18115 4.40039,-1.37012 4.40039,-1.58008 V -6.3042 m 3.08643,-0.73486 c 0.13997,0 0.35343,0.05249 0.64038,0.15747 0.28694,0.10498 0.61238,0.30094 0.97632,0.58789 0.36393,0.28695 0.73136,0.67887 1.10228,1.17578 0.3709,0.49691 0.7139,1.15479 1.0288,1.97363 0.315,0.81885 0.5704,1.80217 0.7664,2.949954 0.1959,1.147787 0.2939,2.512536 0.2939,4.094236 0,2.37956 -0.2134,4.28321 -0.6404,5.71094 -0.4269,1.42776 -0.9133,2.53006 -1.4592,3.30686 -0.54589,0.7769 -1.08479,1.2948 -1.61669,1.5537 -0.5319,0.259 -0.89583,0.3885 -1.09179,0.3885 H 7.36084 V 8.54004 h 0.04199 c 0.11198,0 0.24846,-0.04549 0.40943,-0.13648 C 7.97323,8.31258 8.1237,8.11662 8.26367,7.81567 8.40365,7.51473 8.51563,7.05632 8.59961,6.44043 8.68359,5.82454 8.72559,4.9777 8.72559,3.8999 8.72559,2.8361 8.68359,1.99626 8.59961,1.38037 8.51563,0.764486 8.40365,0.299072 8.26367,-0.0158691 8.1237,-0.330811 7.97323,-0.533773 7.81226,-0.624756 7.65129,-0.715739 7.51481,-0.76123 7.40283,-0.76123 H 7.36084 V -7.03906 H 7.48682 M -4.94287,3.62695 H 1.16699 V 15.1118 H -0.974609 V 11.3745 H -3.1792 v 3.7373 h -7.8735 V 3.62695 h 3.23336 V 2.43018 h 0.98682 l 0.08398,-4.55616 0.20997,-1.67968 C -7.16846,-3.86165 -7.4834,-4.1766 -7.4834,-4.75049 c 0,-0.29394 0.10848,-0.5319 0.32544,-0.71387 0.21696,-0.18196 0.50041,-0.27294 0.85034,-0.27294 0.27995,0 0.52141,0.09098 0.72437,0.27294 0.20296,0.18197 0.30444,0.41993 0.30444,0.71387 0,0.25195 -0.08748,0.46542 -0.26245,0.64038 -0.17497,0.17497 -0.38843,0.27645 -0.64038,0.30445 l 0.16797,1.67968 0.08398,4.55616 h 0.98682 v 1.19677 m -1.53272,7.91555 h -2.37255 v 2.4985 h 2.37255 v -2.4985 m 0,-5.87893 h -2.37255 v 2.51954 h 2.37255 V 5.66357 m 3.21241,2.51954 h 2.372555 V 5.66357 H -3.26318 v 2.51954 m 0.08398,6.92869 h 2.204591 v 0.4829 H -3.1792 V 15.1118 M -2.92725,0.540527 c 0.78386,-0.4899085 1.43474,-1.084798 1.952641,-1.784667 0.517903,-0.69987 0.8748369,-1.45223 1.0708004,-2.25708 0.1959636,-0.80485 0.2379556,-1.6237 0.1259766,-2.45654 -0.111979,-0.83285 -0.398926,-1.6202 -0.86084,-2.36206 L 0.0961914,-8.76074 C 0.614095,-7.9209 0.929036,-7.04256 1.04102,-6.12573 1.15299,-5.2089 1.09351,-4.29907 0.862549,-3.39624 0.631592,-2.49341 0.229167,-1.63957 -0.344727,-0.834717 -0.91862,-0.0298665 -1.64648,0.645508 -2.52832,1.19141 L -2.92725,0.540527 M -4.12402,-1.34912 c 0.5179,-0.29395 0.94132,-0.66838 1.27026,-1.12329 0.32894,-0.45492 0.5599,-0.94833 0.69287,-1.48023 0.13298,-0.5319 0.16797,-1.0708 0.10498,-1.6167 -0.06299,-0.54589 -0.23445,-1.0638 -0.5144,-1.55371 l 0.65088,-0.33593 c 0.36393,0.57389 0.59139,1.17578 0.68237,1.80566 0.09098,0.62988 0.05599,1.25277 -0.10498,1.86865 -0.16097,0.61589 -0.43392,1.19678 -0.81885,1.74268 -0.38493,0.5459 -0.87834,1.00081 -1.48022,1.364744 L -4.12402,-1.34912 M -3.7251,-6.3042 c 0.39193,0.65788 0.48991,1.36125 0.29395,2.11011 -0.19597,0.74886 -0.65788,1.35425 -1.38574,1.81616 l -0.37793,-0.65088 c 0.54589,-0.32194 0.88183,-0.76986 1.00781,-1.34375 0.12597,-0.57389 0.03499,-1.09879 -0.27295,-1.57471 L -3.7251,-6.3042"
         fill-rule="evenodd"
         vector-effect="none" />
    </g>
    <g
       id="g16"
       font-style="normal"
       font-weight="400"
       font-size="7.8px"
       font-family="'MS Shell Dlg 2'"
       stroke="none"
       fill-opacity="1"
       fill="#3d97f1" />
  </g>
</svg>

<?xml version="1.0" encoding="UTF-8" standalone="no"?>
<svg width="11.2889mm" height="11.2889mm"
 viewBox="0 0 32 32"
 xmlns="http://www.w3.org/2000/svg" xmlns:xlink="http://www.w3.org/1999/xlink"  version="1.2" baseProfile="tiny">
<title>Qt SVG Document</title>
<desc>Generated with Qt</desc>
<defs>
</defs>
<g fill="none" stroke="black" stroke-width="1" fill-rule="evenodd" stroke-linecap="square" stroke-linejoin="bevel" >

<g fill="#3d97f1" fill-opacity="1" stroke="none" transform="matrix(1,0,0,1,0,0)"
font-family="MS Shell Dlg 2" font-size="7.8" font-weight="400" font-style="normal" 
>
<path vector-effect="non-scaling-stroke" fill-rule="evenodd" d="M37.2598,16 C37.2598,27.7415 27.7415,37.2598 16,37.2598 C4.25851,37.2598 -5.25984,27.7415 -5.25984,16 C-5.25984,4.25851 4.25851,-5.25984 16,-5.25984 C27.7415,-5.25984 37.2598,4.25851 37.2598,16 "/>
</g>

<g fill="#ffffff" fill-opacity="0.94902" stroke="none" transform="matrix(1,0,0,1,16,12.5984)"
font-family="MS Shell Dlg 2" font-size="7.8" font-weight="400" font-style="normal" 
>
<path vector-effect="none" fill-rule="evenodd" d="M4.40039,9.31689 C4.40039,9.10693 4.48438,8.93197 4.65234,8.79199 C4.82031,8.65202 5.00928,8.58203 5.21924,8.58203 L6.83594,8.58203 L6.83594,14.8599 L5.21924,14.8599 C5.00928,14.8599 4.82031,14.7794 4.65234,14.6184 C4.48438,14.4574 4.40039,14.265 4.40039,14.041 L4.40039,9.31689 M4.40039,-6.3042 C4.40039,-6.52816 4.48438,-6.70662 4.65234,-6.8396 C4.82031,-6.97257 5.00928,-7.03906 5.21924,-7.03906 L6.83594,-7.03906 L6.83594,-0.76123 L5.21924,-0.76123 C5.00928,-0.76123 4.82031,-0.845215 4.65234,-1.01318 C4.48438,-1.18115 4.40039,-1.37012 4.40039,-1.58008 L4.40039,-6.3042 M7.48682,-7.03906 C7.62679,-7.03906 7.84025,-6.98657 8.1272,-6.88159 C8.41414,-6.77661 8.73958,-6.58065 9.10352,-6.2937 C9.46745,-6.00675 9.83488,-5.61483 10.2058,-5.11792 C10.5767,-4.62101 10.9197,-3.96313 11.2346,-3.14429 C11.5496,-2.32544 11.805,-1.34212 12.001,-0.194336 C12.1969,0.953451 12.2949,2.3182 12.2949,3.8999 C12.2949,6.27946 12.0815,8.18311 11.6545,9.61084 C11.2276,11.0386 10.7412,12.1409 10.1953,12.9177 C9.64941,13.6946 9.11051,14.2125 8.57861,14.4714 C8.04671,14.7304 7.68278,14.8599 7.48682,14.8599 L7.36084,14.8599 L7.36084,8.54004 L7.40283,8.54004 C7.51481,8.54004 7.65129,8.49455 7.81226,8.40356 C7.97323,8.31258 8.1237,8.11662 8.26367,7.81567 C8.40365,7.51473 8.51563,7.05632 8.59961,6.44043 C8.68359,5.82454 8.72559,4.9777 8.72559,3.8999 C8.72559,2.8361 8.68359,1.99626 8.59961,1.38037 C8.51563,0.764486 8.40365,0.299072 8.26367,-0.0158691 C8.1237,-0.330811 7.97323,-0.533773 7.81226,-0.624756 C7.65129,-0.715739 7.51481,-0.76123 7.40283,-0.76123 L7.36084,-0.76123 L7.36084,-7.03906 L7.48682,-7.03906 M-4.94287,3.62695 L1.16699,3.62695 L1.16699,15.1118 L-0.974609,15.1118 L-0.974609,11.3745 L-3.1792,11.3745 L-3.1792,15.1118 L-11.0527,15.1118 L-11.0527,3.62695 L-7.81934,3.62695 L-7.81934,2.43018 L-6.83252,2.43018 L-6.74854,-2.12598 L-6.53857,-3.80566 C-7.16846,-3.86165 -7.4834,-4.1766 -7.4834,-4.75049 C-7.4834,-5.04443 -7.37492,-5.28239 -7.15796,-5.46436 C-6.941,-5.64632 -6.65755,-5.7373 -6.30762,-5.7373 C-6.02767,-5.7373 -5.78621,-5.64632 -5.58325,-5.46436 C-5.38029,-5.28239 -5.27881,-5.04443 -5.27881,-4.75049 C-5.27881,-4.49854 -5.36629,-4.28507 -5.54126,-4.11011 C-5.71623,-3.93514 -5.92969,-3.83366 -6.18164,-3.80566 L-6.01367,-2.12598 L-5.92969,2.43018 L-4.94287,2.43018 L-4.94287,3.62695 M-6.47559,11.5425 L-8.84814,11.5425 L-8.84814,14.041 L-6.47559,14.041 L-6.47559,11.5425 M-6.47559,5.66357 L-8.84814,5.66357 L-8.84814,8.18311 L-6.47559,8.18311 L-6.47559,5.66357 M-3.26318,8.18311 L-0.890625,8.18311 L-0.890625,5.66357 L-3.26318,5.66357 L-3.26318,8.18311 M-3.1792,15.1118 L-0.974609,15.1118 L-0.974609,15.5947 L-3.1792,15.5947 L-3.1792,15.1118 M-2.92725,0.540527 C-2.14339,0.0506185 -1.49251,-0.544271 -0.974609,-1.24414 C-0.456706,-1.94401 -0.0997721,-2.69637 0.0961914,-3.50122 C0.292155,-4.30607 0.334147,-5.12492 0.222168,-5.95776 C0.110189,-6.79061 -0.176758,-7.57796 -0.638672,-8.31982 L0.0961914,-8.76074 C0.614095,-7.9209 0.929036,-7.04256 1.04102,-6.12573 C1.15299,-5.2089 1.09351,-4.29907 0.862549,-3.39624 C0.631592,-2.49341 0.229167,-1.63957 -0.344727,-0.834717 C-0.91862,-0.0298665 -1.64648,0.645508 -2.52832,1.19141 L-2.92725,0.540527 M-4.12402,-1.34912 C-3.60612,-1.64307 -3.1827,-2.0175 -2.85376,-2.47241 C-2.52482,-2.92733 -2.29386,-3.42074 -2.16089,-3.95264 C-2.02791,-4.48454 -1.99292,-5.02344 -2.05591,-5.56934 C-2.1189,-6.11523 -2.29036,-6.63314 -2.57031,-7.12305 L-1.91943,-7.45898 C-1.5555,-6.88509 -1.32804,-6.2832 -1.23706,-5.65332 C-1.14608,-5.02344 -1.18107,-4.40055 -1.34204,-3.78467 C-1.50301,-3.16878 -1.77596,-2.58789 -2.16089,-2.04199 C-2.54582,-1.49609 -3.03923,-1.04118 -3.64111,-0.677246 L-4.12402,-1.34912 M-3.7251,-6.3042 C-3.33317,-5.64632 -3.23519,-4.94295 -3.43115,-4.19409 C-3.62712,-3.44523 -4.08903,-2.83984 -4.81689,-2.37793 L-5.19482,-3.02881 C-4.64893,-3.35075 -4.31299,-3.79867 -4.18701,-4.37256 C-4.06104,-4.94645 -4.15202,-5.47135 -4.45996,-5.94727 L-3.7251,-6.3042"/>
</g>

<g fill="#3d97f1" fill-opacity="1" stroke="none" transform="matrix(1,0,0,1,0,0)"
font-family="MS Shell Dlg 2" font-size="7.8" font-weight="400" font-style="normal" 
>
</g>
</g>
</svg>
